zondicons/svg/trophy.svg

<svg width="20px" height="20px" viewBox="0 0 20 20" version="1.1" xmlns="http://www.w3.org/2000/svg" xmlns:xlink="http://www.w3.org/1999/xlink"><title>trophy</title><desc>Created with Sketch.</desc><defs></defs><g id="Page-1" stroke="none" stroke-width="1" fill="none" fill-rule="evenodd"><g id="trophy" fill="#000000"><path d="M15,9 C16.6568542,9 18,7.65685425 18,6 L20,6 C20,8.76142375 17.7614237,11 15,11 C14.9666494,11 14.9333751,10.9996735 14.90018,10.9990235 C14.5028122,12.9586176 12.9594559,14.5022333 11,14.8999819 L11,17 L16,19 L16,20 L4,20 L4,19 L9,17 L9,14.8999819 C7.04054412,14.5022333 5.49718782,12.9586176 5.09981999,10.9990235 C5.06662494,10.9996735 5.0333506,11 5,11 C2.23857625,11 0,8.76142375 0,6 L2,6 C2,7.65685425 3.34314575,9 5,9 L5,4 L2,4 L2,6 L0,6 L0,2 L5,2 L5,0 L15,0 L15,2 L20,2 L20,6 L18,6 L18,4 L15,4 L15,9 Z" id="Combined-Shape"></path></g></g></svg>

<svg xmlns="http://www.w3.org/2000/svg" viewBox="0 0 20 20"><path d="M15 9a3 3 0 0 0 3-3h2a5 5 0 0 1-5.1 5 5 5 0 0 1-3.9 3.9V17l5 2v1H4v-1l5-2v-2.1A5 5 0 0 1 5.1 11H5a5 5 0 0 1-5-5h2a3 3 0 0 0 3 3V4H2v2H0V2h5V0h10v2h5v4h-2V4h-3v5z"/></svg>
